X:1
T:O felice colvi
T:Baldassare Donato
T:Source : Fantasia et Recerchari a tre voci---Venetia---G.Scotto---1549. Editor : André Vierendeels (16/11/17). Notes : Original clafs : C1, C3, F3 Original note values have been halved Collected by Giuliano Tiburtino Editorial accidentals above the staff  
T:O felice colvi
T:©
T:©
T:©
T:©
T:©
T:©
C:Baldassare Donato
Z:©
%%score [ 1 2 3 ]
L:1/8
Q:1/4=120
M:2/2
K:C
V:1 treble nm="Soprano" snm="S"
V:2 treble-8 nm="Tenor" snm="T"
V:3 bass nm="Bass" snm="B"
V:1
 z8 | A6 G2 | F4 E2 E2 | A6 G2 | c2 A2 c4- | c2 B2 z2 A2- | AA G2 A2 F2 | E4 E2 E2- | EE A2 A2 G2 | %9
w: |O fe-|li- ce col-|vi ch'el|suo vo- le-|* re nel|_ vo- ler dell' a-|mi- co, nel|_ vo- ler dell' a-|
 c4 B2 z B | cG A2 G2 z D | FG A2 G2 c2- | c2 B2 G2 A2- | A2 D2 G4 | C4 F3 G | AG/F/EA G E2 D | %16
w: mi- co e|lie- to vi- ve, e|lie- to vi- ve, e|_ chi le cu-|* re sue|gra- * *|* * * vi le- ge- * *|
 E2 G2 A3 G | F2 E2 F2 ED | F2 E2 z A2 G | A2 A2 z2 B2 | c3 B A2 G2 | A4 A2 c2- | cBAG FE F2 | %23
w: * ra lon- tan|d'in- fa- mi- a e'in-|ga- no, per l'e-|scri- ve, lon-|tan d'in- fa- mi-|a e'n- ga-|* * * * no _ par-|
"^#" E2 A4 G2 | A2 E2 G2 A2 | G2 E2 F4 | E2 G2 F2 E2- | E2 D2 E4- | E4 z2 B2 | c4 B4 | %30
w: le scri- ve,|in- i- quo et|in- fe- li-|ce chi ap- pa-|* re- rà,|_ sol|ca- ra|
 z2 E2 A2 A2 | G6 c2- | cB A3 G/F/ G2 | E2 F2 EC c2- | cB/A/ B2 c4 | z2 B2 B2 c2- | cc A2 G2 E2- | %37
w: e di que-|ste'a quel|_ _ tem- * * po|pre- scri- * * *|* * * * ve,|ne fa quan-|* to sia mal per-|
 EE D2 C3 B,/A,/ | B,4 B,2 E2- | EE G2 F2 E2 | A4 G2 G2- | G2 G2 F2 E2- | E2 D2 E4- | E4 z2 A2- | %44
w: * der il be- * *|* ne che|_ con lun- ga spe-|rien- * za'in|_ man si tie-|* * ne,|_ che|
 AA G2 A2 B2 | c6 B2 |"^-natural" c2 G2 G4 | G2 c2 c2 B2 | A4 ^G4- | G8 |] %50
w: _ con lun- ga spe-|rien- za'in|man si tie-|ne, in man si|tie- *|ne.|
V:2
 e6 d2 | f4 d2 e2 | c6 B2 | c2 d2 e4 | e8 | z2 e3 e d2 | e2 B2 d4 | c2 c3 c B2 | c2 d2 cB/A/ B2 | %9
w: O fe-|li- ce col-|vi ch'al|suo vo- le-|re|nel vo- ler|dell' a- mi-|co, nel vo- ler|dell' a- mi- * * *|
 A2 z c de d2 | e2 z c e>dcA- | A e2 d e4 | z2 e4 c2 | d2 B4 c2 | A6 d2- | d2 c2 c c2 B | %16
w: co, e lie- to vi-|ve e lie _ _ to-|* * vi- ve|e chi|le cu- re|sue gra-|* vi le- ger à|
 c2 e2 f3 e | d2 c2 A3 B | c4 A2 z c- | cd f2 e4 | z2 e2 c3 B | A2 c2 f2 e2 | e3 d c2 A2 | %23
w: lon- tan d'in- fa-|mi- * a e'in-|ga- no, per|_ l'es- ci- ve,|lon- tan d'in-|fa- mia e'in- ga|no par l'es- cri-|
 c3 B/A/ B4 | A2 c2 c3 A | B2 c2 A4 | G2 E2 A2 c2- | cB A4 G2 | A2 e2 e4- | e8 | c4 z2 A2 | %31
w: |ve'in- i- quo et|in- fe- li-|ve chi ap- pa-|* * re- *|rà sol ca-||ra e|
 c2 B2 c2 e2- | ed/c/ d2 e2 B2 | c3 d efed/c/ | d4 e4 | z2 d2 g2 e2- | ee d2 e2 c2- | %37
w: di que- ste'a quel|_ _ _ tem- po pre-|scri- * * * * * *|* ve,|ne fa quan-|* to sia mal per|
 c2 B2 G2 A2- |"^#" A2 G2 z2 c2- | cc c2 d2 c2 | ABcd e4- | e2 e2 A2 c2 | c2 BA B2 c2- | %43
w: _ der il be-|* ne che|_ con lun- ga spe-|rien- * * * *|* za'in man si|tie- * * ne, che|
 cc B2 c2 d2 | e2 B2 c2 d2 | e4 e4- | e2 d2 e4- | e2 e2 e3 d | c4 B4- | B8 |] %50
w: _ con lun- ga spe-|rien- za'in man si|tie- ne,|_ in man|_ si tien- *|* ne.|_|
V:3
 z8 | z8 | A,6 G,2 | F,4 E,2 E,2 | A,6 A,2 | A,2 G,2 F,4 | E,4 z4 | z2 A,3 A, G,2 | A,2 F,2 E,4 | %9
w: ||O fe-|li- ce col-|vi ch'el|suo vo- le-|re,|nel vo- ler|dell' a- mi-|
 A,,2 z A, G,E, G,2 | C,2 z F, C>B, A,/G,/F,/E,/ | D,C, F,2 E,2 A,2- | A,2 G,2 E,2 F,2- | %13
w: co, e lie- to vi-|ve e lie _ _ _ _ _|_ to vi- ve, e|_ chi le cu-|
 F,2 G,2 E,4 | F,4 D,3 E, | F,G,A,G,/F,/ E,A, G,2 | C,4 z4 | z4 z2 z G, | A,3 G, F,2 E,2 | %19
w: * re sue|gra- * *|* * * * * vi le- ger|à,|lon-|tan d'in- fa- mia'e'n|
 F,2 D,2 z A,2 G, | A,2 A,2 z2 E,2 | F,3 E, D,2 A,,2 | A,6 D,2 | A,2 F,2 E,4 | A,,4 z4 | %25
w: ga- no, par- l'es-|cri- ve, lon-|tan d'in- fa- mia'e'n|ga- no|par- l'es- cri-|ve,|
 z4 z2 D,2 | E,2 C,2 D,2 E,2 | F,4 E,2 B,2 | C2 A,4 G,2 | A,4 z2 E,2 | A,3 G, F,4 | E,4 z2 A,,2 | %32
w: in-|i- quo'et in- fe-|li- ce chi|ap- pa- re-|rà, sol|ca- * *|ra e|
 F,2 F,2 E,4 | A,4 A,2 A,2 | G,4 C,4 | z2 G,2 G,2 A,2- | A,A, F,2 E,4 | G,4 E,2 F,2 | E,4 A,,4 | %39
w: que- ste'a quel|tem- po pre-|scri- ve,|ne fa quan-|* to sia mal|per- der il|be- ne|
 z8 | z4 z2 C,2- | C,C, C,2 D,2 C,2 | F,4 E,2 A,2- | A,2 G,2 F,4 | E,4 z4 | z2 A,3 A, ^G,2 | %46
w: |che|_ non lun- ga spe-|rien- za'in man|_ si tie-|ne,|che con lun-|
 A,2 B,2 C4- | C2 A,2 A,2 ^G,2 | A,4 E,4- | E,8 |] %50
w: ga spe- rien-|* za'in man si|tie- ne.|_|

